frontend/public/assets/material-icons/robots.svg

<svg xmlns="http://www.w3.org/2000/svg" viewBox="0 0 32 32">
  <path d="M28.58582,18H28a8,8,0,0,0-8-8H18V8.44519a4,4,0,1,0-4,0V10H12a8,8,0,0,0-8,8H3.41418A1.41422,1.41422,0,0,0,2,19.41418v3.17157A1.41423,1.41423,0,0,0,3.41418,24H4v1a3,3,0,0,0,3,3H25a3,3,0,0,0,3-3V24h.58582A1.41423,1.41423,0,0,0,30,22.58575V19.41418A1.41422,1.41422,0,0,0,28.58582,18ZM11,22a3,3,0,1,1,3-3A3,3,0,0,1,11,22Zm10,0a3,3,0,1,1,3-3A3,3,0,0,1,21,22Z" style="fill: #ff5252"/>
</svg>

<svg xmlns="http://www.w3.org/2000/svg" viewBox="0 0 32 32"><path fill="#ff5252" d="M28.586 18H28a8 8 0 0 0-8-8h-2V8.445a4 4 0 1 0-4 0V10h-2a8 8 0 0 0-8 8h-.586A1.414 1.414 0 0 0 2 19.414v3.172A1.414 1.414 0 0 0 3.414 24H4v1a3 3 0 0 0 3 3h18a3 3 0 0 0 3-3v-1h.586A1.414 1.414 0 0 0 30 22.586v-3.172A1.414 1.414 0 0 0 28.586 18M11 22a3 3 0 1 1 3-3 3 3 0 0 1-3 3m10 0a3 3 0 1 1 3-3 3 3 0 0 1-3 3"/></svg>
